;FLAVOR:Marlin
;TIME:8247
;Filament used: 5.43695m
;Layer height: 0.2
;MINX:88.633
;MINY:78.924
;MINZ:0.2
;MAXX:131.367
;MAXY:141.076
;MAXZ:33
;Generated with Cura_SteamEngine 4.4.0
M140 S60
M105
M190 S60
M104 S200
M105
M109 S200
M82 ;absolute extrusion mode
M201 X500.00 Y500.00 Z100.00 E5000.00 ;Setup machine max acceleration
M203 X500.00 Y500.00 Z10.00 E50.00 ;Setup machine max feedrate
M204 P500.00 R1000.00 T500.00 ;Setup Print/Retract/Travel acceleration
M205 X8.00 Y8.00 Z0.40 E5.00 ;Setup Jerk
M220 S100 ;Reset Feedrate
M221 S100 ;Reset Flowrate

G28 ;Home

G92 E0 ;Reset Extruder
G1 Z2.0 F3000 ;Move Z Axis up
G1 X10.1 Y20 Z0.28 F5000.0 ;Move to start position
G1 X10.1 Y200.0 Z0.28 F1500.0 E15 ;Draw the first line
G1 X10.4 Y200.0 Z0.28 F5000.0 ;Move to side a little
G1 X10.4 Y20 Z0.28 F1500.0 E30 ;Draw the second line
G92 E0 ;Reset Extruder
G1 Z2.0 F3000 ;Move Z Axis up

G92 E0
G92 E0
G1 F1500 E-6.5
;LAYER_COUNT:165
;LAYER:0
M107
G0 F6000 X92.544 Y82.661 Z0.2
;TYPE:SKIRT
G1 F1500 E0
G1 F1200 X93.455 Y81.83 E0.04101
G1 X93.84 Y81.516 E0.05754
G1 X94.591 Y80.954 E0.08873
G1 X95.388 Y80.459 E0.11994
G1 X96.223 Y80.034 E0.1511
G1 X97.092 Y79.681 E0.1823
G1 X97.995 Y79.401 E0.21374
G1 X98.383 Y79.299 E0.22709
G1 X99.3 Y79.1 E0.2583
G1 X100.23 Y78.979 E0.28949
G1 X100.969 Y78.94 E0.3141
G1 X101.647 Y78.927 E0.33666
G1 X101.857 Y78.925 E0.34364
G1 X118.093 Y78.924 E0.88365
G1 X118.25 Y78.925 E0.88888
G1 X118.953 Y78.935 E0.91226
G1 X119.89 Y78.988 E0.94347
G1 X120.818 Y79.121 E0.97465
G1 X121.465 Y79.262 E0.99668
G1 X121.861 Y79.361 E1.01026
G1 X122.76 Y79.627 E1.04144
G1 X123.634 Y79.969 E1.07265
G1 X124.475 Y80.384 E1.10385
G1 X125.278 Y80.869 E1.13505
G1 X125.778 Y81.222 E1.1554
G1 X125.964 Y81.361 E1.16313
G1 X126.354 Y81.666 E1.17959
G1 X126.543 Y81.821 E1.18772
G1 X127.243 Y82.447 E1.21896
G1 X127.886 Y83.129 E1.25013
G1 X128.484 Y83.885 E1.28219
G1 X128.622 Y84.076 E1.29003
G1 X128.91 Y84.494 E1.30691
G1 X129.09 Y84.769 E1.31785
G1 X129.569 Y85.575 E1.34903
G1 X129.914 Y86.273 E1.37493
G1 X130.01 Y86.486 E1.3827
G1 X130.254 Y87.072 E1.40381
G1 X130.416 Y87.495 E1.41888
G1 X130.714 Y88.384 E1.45006
G1 X130.846 Y88.886 E1.46732
G1 X130.923 Y89.21 E1.4784
G1 X131.007 Y89.596 E1.49154
G1 X131.087 Y89.996 E1.50511
G1 X131.265 Y91.265 E1.54773
G1 X131.303 Y91.734 E1.56338
G1 X131.337 Y92.397 E1.58546
G1 X131.364 Y93.714 E1.62927
G1 X131.366 Y93.939 E1.63675
G1 X131.367 Y126.286 E2.71262
G1 X131.366 Y126.442 E2.71781
G1 X131.358 Y127.005 E2.73654
G1 X131.348 Y127.344 E2.74782
G1 X131.316 Y128.054 E2.77146
G1 X131.293 Y128.429 E2.78395
G1 X131.275 Y128.656 E2.79153
G1 X131.103 Y129.906 E2.83349
G1 X131.004 Y130.41 E2.85058
G1 X130.931 Y130.751 E2.86217
G1 X130.872 Y131.008 E2.87094
G1 X130.503 Y132.265 E2.91452
G1 X130.415 Y132.51 E2.92317
G1 X130.239 Y132.968 E2.93949
G1 X130.081 Y133.353 E2.95334
G1 X129.689 Y134.205 E2.98453
G1 X129.251 Y134.978 E3.01408
G1 X129.143 Y135.152 E3.02089
G1 X128.853 Y135.595 E3.0385
G1 X128.651 Y135.888 E3.05034
G1 X128.087 Y136.636 E3.0815
G1 X127.46 Y137.334 E3.1127
G1 X126.552 Y138.164 E3.15362
G1 X126.165 Y138.48 E3.17024
G1 X125.414 Y139.042 E3.20143
G1 X124.618 Y139.538 E3.23263
G1 X123.782 Y139.964 E3.26384
G1 X122.914 Y140.317 E3.295
G1 X122.011 Y140.597 E3.32645
G1 X121.624 Y140.699 E3.33976
G1 X120.708 Y140.899 E3.37094
G1 X119.778 Y141.02 E3.40213
G1 X119.032 Y141.06 E3.42698
G1 X118.353 Y141.073 E3.44957
G1 X118.143 Y141.075 E3.45656
G1 X101.907 Y141.076 E3.99657
G1 X101.75 Y141.075 E4.00179
G1 X101.047 Y141.065 E4.02517
G1 X100.11 Y141.012 E4.05639
G1 X99.182 Y140.879 E4.08757
G1 X98.548 Y140.741 E4.10915
G1 X98.146 Y140.641 E4.12293
G1 X97.246 Y140.376 E4.15413
G1 X96.372 Y140.035 E4.18534
G1 X95.531 Y139.621 E4.21651
G1 X94.727 Y139.137 E4.24773
G1 X94.087 Y138.68 E4.27388
G1 X93.904 Y138.539 E4.28157
G1 X93.693 Y138.372 E4.29052
G1 X93.498 Y138.214 E4.29886
G1 X92.795 Y137.593 E4.33006
G1 X92.148 Y136.914 E4.36126
G1 X91.407 Y135.969 E4.4012
G1 X91.277 Y135.783 E4.40874
G1 X91.076 Y135.485 E4.4207
G1 X90.891 Y135.201 E4.43197
G1 X90.413 Y134.394 E4.46317
G1 X90.042 Y133.632 E4.49136
G1 X89.953 Y133.43 E4.4987
G1 X89.743 Y132.92 E4.51704
G1 X89.578 Y132.488 E4.53242
G1 X89.281 Y131.598 E4.56363
G1 X89.146 Y131.079 E4.58147
G1 X89.072 Y130.764 E4.59223
G1 X88.991 Y130.39 E4.60496
G1 X88.911 Y129.987 E4.61862
G1 X88.737 Y128.751 E4.66014
G1 X88.698 Y128.279 E4.67589
G1 X88.663 Y127.599 E4.69854
G1 X88.636 Y126.287 E4.74218
G1 X88.634 Y126.061 E4.7497
G1 X88.633 Y93.692 E5.8263
G1 X88.634 Y93.529 E5.83172
G1 X88.642 Y92.988 E5.84971
G1 X88.652 Y92.656 E5.86076
G1 X88.684 Y91.946 E5.8844
G1 X88.707 Y91.571 E5.8969
G1 X88.725 Y91.344 E5.90447
G1 X88.897 Y90.094 E5.94644
G1 X88.996 Y89.59 E5.96352
G1 X89.068 Y89.251 E5.97505
G1 X89.129 Y88.985 E5.98412
G1 X89.529 Y87.643 E6.0307
G1 X89.624 Y87.385 E6.03984
G1 X89.776 Y86.995 E6.05377
G1 X89.926 Y86.631 E6.06686
G1 X90.32 Y85.78 E6.09805
G1 X90.765 Y84.997 E6.12801
G1 X90.878 Y84.816 E6.1351
G1 X91.155 Y84.394 E6.15189
G1 X91.353 Y84.107 E6.16349
G1 X91.918 Y83.359 E6.19467
G1 X92.544 Y82.661 E6.22585
G0 F6000 X92.854 Y82.917
G1 F1200 X93.707 Y82.14 E6.26423
G1 X94.092 Y81.826 E6.28075
G1 X94.831 Y81.275 E6.31141
G1 X95.614 Y80.791 E6.34203
G1 X96.436 Y80.377 E6.37264
G1 X97.291 Y80.035 E6.40327
G1 X98.097 Y79.788 E6.43131
G1 X98.485 Y79.686 E6.44465
G1 X99.385 Y79.491 E6.47528
G1 X100.298 Y79.375 E6.50589
G1 X100.977 Y79.34 E6.5285
G1 X101.655 Y79.327 E6.55106
G1 X101.857 Y79.325 E6.55778
G1 X118.093 Y79.324 E7.09779
G1 X118.245 Y79.325 E7.10284
G1 X118.948 Y79.335 E7.12623
G1 X119.867 Y79.388 E7.15684
G1 X120.778 Y79.521 E7.18747
G1 X121.368 Y79.65 E7.20755
G1 X121.764 Y79.749 E7.22113
G1 X122.647 Y80.011 E7.25176
G1 X123.503 Y80.349 E7.28237
G1 X124.327 Y80.759 E7.31298
G1 X125.112 Y81.24 E7.34361
G1 X125.538 Y81.542 E7.36097
G1 X125.724 Y81.681 E7.3687
G1 X126.101 Y81.976 E7.38462
G1 X126.29 Y82.131 E7.39275
G1 X126.976 Y82.745 E7.42337
G1 X127.606 Y83.416 E7.45398
G1 X128.16 Y84.119 E7.48375
G1 X128.298 Y84.31 E7.49159
G1 X128.575 Y84.713 E7.50785
G1 X128.755 Y84.988 E7.51878
G1 X129.225 Y85.779 E7.54939
G1 X129.55 Y86.437 E7.5738
G1 X129.646 Y86.65 E7.58157
G1 X129.881 Y87.215 E7.60192
G1 X130.043 Y87.638 E7.61699
G1 X130.335 Y88.511 E7.6476
G1 X130.457 Y88.978 E7.66366
G1 X130.534 Y89.302 E7.67473
G1 X130.615 Y89.674 E7.6874
G1 X130.695 Y90.074 E7.70096
G1 X130.866 Y91.297 E7.74204
G1 X130.904 Y91.766 E7.75769
G1 X130.937 Y92.405 E7.77897
G1 X130.964 Y93.722 E7.82278
G1 X130.966 Y93.939 E7.83
G1 X130.967 Y126.286 E8.90586
G1 X130.966 Y126.437 E8.91089
G1 X130.958 Y127 E8.92961
G1 X130.948 Y127.326 E8.94046
G1 X130.916 Y128.036 E8.9641
G1 X130.894 Y128.397 E8.97613
G1 X130.876 Y128.624 E8.9837
G1 X130.71 Y129.829 E9.02416
G1 X130.611 Y130.333 E9.04124
G1 X130.541 Y130.662 E9.05243
G1 X130.482 Y130.919 E9.0612
G1 X130.127 Y132.13 E9.10317
G1 X130.039 Y132.375 E9.11183
G1 X129.869 Y132.816 E9.12755
G1 X129.711 Y133.201 E9.14139
G1 X129.325 Y134.037 E9.17202
G1 X128.911 Y134.767 E9.19993
G1 X128.803 Y134.941 E9.20674
G1 X128.524 Y135.368 E9.22371
G1 X128.322 Y135.661 E9.23555
G1 X127.767 Y136.395 E9.26615
G1 X127.15 Y137.079 E9.29679
G1 X126.299 Y137.855 E9.3351
G1 X125.912 Y138.171 E9.35171
G1 X125.174 Y138.721 E9.38233
G1 X124.392 Y139.206 E9.41293
G1 X123.57 Y139.621 E9.44356
G1 X122.715 Y139.963 E9.47419
G1 X121.91 Y140.21 E9.50219
G1 X121.523 Y140.312 E9.5155
G1 X120.623 Y140.508 E9.54614
G1 X119.71 Y140.625 E9.57675
G1 X119.024 Y140.66 E9.5996
G1 X118.345 Y140.673 E9.62219
G1 X118.143 Y140.675 E9.62891
G1 X101.907 Y140.676 E10.16892
G1 X101.755 Y140.675 E10.17397
G1 X101.052 Y140.665 E10.19736
G1 X100.133 Y140.612 E10.22798
G1 X99.222 Y140.479 E10.2586
G1 X98.644 Y140.353 E10.27827
G1 X98.242 Y140.253 E10.29205
G1 X97.359 Y139.992 E10.32268
G1 X96.502 Y139.655 E10.3533
G1 X95.678 Y139.246 E10.3839
G1 X94.892 Y138.766 E10.41453
G1 X94.331 Y138.363 E10.43751
G1 X94.148 Y138.222 E10.44519
G1 X93.945 Y138.061 E10.45381
G1 X93.75 Y137.903 E10.46216
G1 X93.06 Y137.293 E10.49279
G1 X92.426 Y136.625 E10.52342
G1 X91.735 Y135.739 E10.56079
G1 X91.605 Y135.553 E10.56834
G1 X91.411 Y135.267 E10.57983
G1 X91.226 Y134.983 E10.5911
G1 X90.758 Y134.19 E10.62173
G1 X90.408 Y133.471 E10.64833
G1 X90.319 Y133.269 E10.65567
G1 X90.117 Y132.777 E10.67336
G1 X89.952 Y132.345 E10.68874
G1 X89.661 Y131.472 E10.71935
G1 X89.535 Y130.987 E10.73601
G1 X89.461 Y130.672 E10.74678
G1 X89.383 Y130.312 E10.75903
G1 X89.303 Y129.909 E10.77269
G1 X89.136 Y128.718 E10.81269
G1 X89.097 Y128.246 E10.82844
G1 X89.063 Y127.591 E10.85026
G1 X89.036 Y126.279 E10.89391
G1 X89.034 Y126.061 E10.90116
G1 X89.033 Y93.692 E11.97775
G1 X89.034 Y93.535 E11.98298
G1 X89.042 Y92.994 E12.00097
G1 X89.052 Y92.674 E12.01162
G1 X89.084 Y91.964 E12.03526
G1 X89.106 Y91.603 E12.04729
G1 X89.124 Y91.376 E12.05486
G1 X89.29 Y90.171 E12.09532
G1 X89.389 Y89.667 E12.1124
G1 X89.458 Y89.341 E12.12349
G1 X89.519 Y89.075 E12.13256
G1 X89.904 Y87.781 E12.17747
G1 X89.999 Y87.523 E12.18661
G1 X90.146 Y87.147 E12.20004
G1 X90.296 Y86.783 E12.21313
G1 X90.683 Y85.948 E12.24374
G1 X91.104 Y85.208 E12.27206
G1 X91.217 Y85.027 E12.27916
G1 X91.484 Y84.622 E12.29529
G1 X91.682 Y84.335 E12.30689
G1 X92.237 Y83.6 E12.33752
G1 X92.854 Y82.917 E12.36813
G0 F6000 X93.163 Y83.173
G1 F1200 X93.96 Y82.45 E12.40392
G1 X94.345 Y82.136 E12.42045
G1 X95.07 Y81.596 E12.45051
G1 X95.839 Y81.123 E12.48054
G1 X96.647 Y80.72 E12.51057
G1 X97.488 Y80.39 E12.54062
G1 X98.199 Y80.175 E12.56533
G1 X98.587 Y80.073 E12.57867
G1 X99.469 Y79.882 E12.60869
G1 X100.366 Y79.771 E12.63875
G1 X100.984 Y79.74 E12.65933
G1 X101.662 Y79.727 E12.68188
G1 X101.857 Y79.725 E12.68837
G1 X118.093 Y79.724 E13.22838
G1 X118.239 Y79.725 E13.23324
G1 X118.942 Y79.735 E13.25662
G1 X119.844 Y79.788 E13.28667
G1 X120.737 Y79.92 E13.3167
G1 X121.271 Y80.039 E13.33489
G1 X121.667 Y80.138 E13.34847
G1 X122.532 Y80.395 E13.37848
G1 X123.372 Y80.728 E13.40854
G1 X124.179 Y81.134 E13.43858
G1 X125.299 Y81.862 E13.48301
G1 X125.485 Y82.001 E13.49074
G1 X125.847 Y82.285 E13.50604
G1 X126.036 Y82.44 E13.51417
G1 X126.708 Y83.043 E13.5442
G1 X127.325 Y83.703 E13.57425
G1 X127.836 Y84.353 E13.60175
G1 X127.974 Y84.544 E13.60959
G1 X128.24 Y84.932 E13.62523
G1 X128.42 Y85.207 E13.63616
G1 X128.881 Y85.984 E13.66621
G1 X129.185 Y86.602 E13.68912
G1 X129.281 Y86.815 E13.69689
G1 X129.507 Y87.358 E13.71645
G1 X129.669 Y87.781 E13.73152
G1 X130.068 Y89.071 E13.77643
G1 X130.145 Y89.395 E13.78751
G1 X130.223 Y89.753 E13.79969
G1 X130.303 Y90.153 E13.81326
G1 X130.468 Y91.329 E13.85276
G1 X130.506 Y91.798 E13.86841
G1 X130.537 Y92.413 E13.88889
G1 X130.564 Y93.73 E13.9327
G1 X130.566 Y93.939 E13.93965
G1 X130.567 Y126.286 E15.01552
G1 X130.566 Y126.431 E15.02034
G1 X130.558 Y126.994 E15.03907
G1 X130.549 Y127.308 E15.04952
G1 X130.517 Y128.018 E15.07316
G1 X130.495 Y128.365 E15.08472
G1 X130.477 Y128.592 E15.09229
G1 X130.318 Y129.752 E15.13124
G1 X130.219 Y130.256 E15.14832
G1 X130.151 Y130.572 E15.15907
G1 X130.092 Y130.829 E15.16784
G1 X129.751 Y131.995 E15.20825
G1 X129.663 Y132.24 E15.21691
G1 X129.499 Y132.665 E15.23206
G1 X129.341 Y133.05 E15.2459
G1 X128.962 Y133.869 E15.27591
G1 X128.571 Y134.556 E15.3022
G1 X128.463 Y134.73 E15.30902
G1 X128.195 Y135.141 E15.32534
G1 X127.993 Y135.434 E15.33717
G1 X127.448 Y136.154 E15.36721
G1 X126.841 Y136.823 E15.39725
G1 X126.046 Y137.545 E15.43297
G1 X125.659 Y137.861 E15.44959
G1 X124.935 Y138.4 E15.47961
G1 X124.166 Y138.874 E15.50965
G1 X123.358 Y139.278 E15.5397
G1 X122.518 Y139.608 E15.56972
G1 X121.808 Y139.823 E15.59439
G1 X121.421 Y139.925 E15.6077
G1 X120.538 Y140.116 E15.63775
G1 X119.642 Y140.229 E15.66779
G1 X119.016 Y140.26 E15.68863
G1 X118.337 Y140.273 E15.71122
G1 X118.143 Y140.275 E15.71767
G1 X101.907 Y140.276 E16.25769
G1 X101.761 Y140.275 E16.26254
G1 X101.058 Y140.265 E16.28593
G1 X100.156 Y140.212 E16.31598
G1 X99.263 Y140.08 E16.346
G1 X98.741 Y139.964 E16.36379
G1 X98.339 Y139.864 E16.37757
G1 X97.473 Y139.608 E16.4076
G1 X96.633 Y139.276 E16.43764
G1 X95.826 Y138.87 E16.46769
G1 X95.058 Y138.395 E16.49772
G1 X94.576 Y138.046 E16.51752
G1 X94.393 Y137.905 E16.5252
G1 X94.197 Y137.75 E16.53351
G1 X94.002 Y137.592 E16.54186
G1 X93.326 Y136.993 E16.5719
G1 X92.706 Y136.337 E16.60192
G1 X92.063 Y135.51 E16.63676
G1 X91.933 Y135.324 E16.64431
G1 X91.746 Y135.048 E16.6554
G1 X91.561 Y134.764 E16.66667
G1 X91.102 Y133.987 E16.69669
G1 X90.774 Y133.31 E16.72171
G1 X90.685 Y133.108 E16.72905
G1 X90.49 Y132.634 E16.7461
G1 X90.325 Y132.202 E16.76148
G1 X90.041 Y131.345 E16.79151
G1 X89.924 Y130.896 E16.80694
G1 X89.85 Y130.581 E16.8177
G1 X89.775 Y130.234 E16.82951
G1 X89.695 Y129.831 E16.84317
G1 X89.535 Y128.685 E16.88166
G1 X89.496 Y128.213 E16.89741
G1 X89.463 Y127.583 E16.9184
G1 X89.436 Y126.271 E16.96204
G1 X89.434 Y126.061 E16.96903
G1 X89.433 Y93.692 E18.04562
G1 X89.434 Y93.541 E18.05065
G1 X89.442 Y93 E18.06864
G1 X89.451 Y92.692 E18.07889
G1 X89.483 Y91.982 E18.10253
G1 X89.505 Y91.635 E18.11409
G1 X89.523 Y91.408 E18.12167
G1 X89.682 Y90.248 E18.16061
G1 X89.781 Y89.744 E18.17769
G1 X89.848 Y89.43 E18.18837
G1 X89.909 Y89.164 E18.19745
G1 X90.279 Y87.92 E18.24062
G1 X90.374 Y87.662 E18.24976
G1 X90.515 Y87.3 E18.26268
G1 X90.665 Y86.936 E18.27578
G1 X91.046 Y86.117 E18.30582
G1 X91.444 Y85.42 E18.33251
G1 X91.557 Y85.239 E18.33961
G1 X91.813 Y84.849 E18.35513
G1 X92.011 Y84.562 E18.36672
G1 X92.556 Y83.842 E18.39676
G1 X93.163 Y83.173 E18.4268
G1 F1500 E11.9268
;MESH:AUGENTROPFENHALTERUNG.stl
G0 F6000 X98.97 Y92.941
G0 X100.052 Y93.009
G0 X100.85 Y127.676
G0 X101.247 Y129.057
;TYPE:WALL-INNER
G1 F1500 E18.4268
G1 F1200 X101.16 Y128.987 E18.43052
G1 X100.986 Y128.728 E18.4409
G1 X100.803 Y128.271 E18.45727
G1 X100.68 Y127.695 E18.47686
G1 X100.634 Y127.014 E18.49956
G1 X100.633 Y93.015 E19.63037
G1 X100.678 Y92.31 E19.65387
G1 X100.802 Y91.729 E19.67363
G1 X100.98 Y91.278 E19.68975
G1 X101.156 Y91.016 E19.70025
G1 X101.246 Y90.945 E19.70406
G1 X101.322 Y90.925 E19.70668
G1 X118.678 Y90.924 E20.28394
G1 X118.753 Y90.943 E20.28651
G1 X118.84 Y91.013 E20.29023
G1 X119.014 Y91.272 E20.30061
G1 X119.197 Y91.729 E20.31698
G1 X119.32 Y92.305 E20.33657
G1 X119.366 Y92.986 E20.35927
G1 X119.367 Y126.985 E21.49008
G1 X119.322 Y127.69 E21.51358
G1 X119.198 Y128.271 E21.53334
G1 X119.02 Y128.722 E21.54946
G1 X118.844 Y128.984 E21.55996
G1 X118.754 Y129.055 E21.56377
G1 X118.678 Y129.075 E21.56639
G1 X101.322 Y129.076 E22.14365
G1 X101.247 Y129.057 E22.14622
G0 F6000 X101.066 Y129.424
G1 F1200 X100.862 Y129.261 E22.15491
G1 X100.629 Y128.914 E22.16881
G1 X100.42 Y128.39 E22.18757
G1 X100.413 Y128.355 E22.18876
G1 X100.283 Y127.751 E22.20931
G1 X100.282 Y127.722 E22.21028
G1 X100.236 Y127.042 E22.23294
G1 X100.234 Y127.026 E22.23348
G1 X100.233 Y93.006 E23.36499
G1 X100.281 Y92.254 E23.39005
G1 X100.418 Y91.613 E23.41185
G1 X100.624 Y91.091 E23.43052
G1 X100.858 Y90.742 E23.4445
G1 X101.063 Y90.579 E23.45321
G1 X101.271 Y90.525 E23.46035
G1 X118.728 Y90.524 E24.04098
G1 X118.934 Y90.576 E24.04804
G1 X119.138 Y90.739 E24.05673
G1 X119.371 Y91.086 E24.07063
G1 X119.58 Y91.61 E24.08939
G1 X119.587 Y91.645 E24.09058
G1 X119.717 Y92.249 E24.11113
G1 X119.718 Y92.278 E24.11209
G1 X119.764 Y92.958 E24.13476
G1 X119.766 Y92.974 E24.1353
G1 X119.767 Y126.994 E25.26681
G1 X119.719 Y127.746 E25.29187
G1 X119.582 Y128.387 E25.31367
G1 X119.376 Y128.909 E25.33234
G1 X119.142 Y129.258 E25.34631
G1 X118.937 Y129.421 E25.35502
G1 X118.729 Y129.475 E25.36217
G1 X101.272 Y129.476 E25.94279
G1 X101.066 Y129.424 E25.94986
G0 F6000 X100.885 Y129.791
;TYPE:WALL-OUTER
G1 F1200 X100.564 Y129.535 E25.96352
G1 X100.272 Y129.1 E25.98094
G1 X100.037 Y128.509 E26.00209
G1 X99.886 Y127.807 E26.02598
G1 X99.834 Y127.038 E26.05161
G1 X99.833 Y92.996 E27.18385
G1 X99.884 Y92.199 E27.21042
G1 X100.034 Y91.497 E27.23429
G1 X100.268 Y90.904 E27.2555
G1 X100.56 Y90.468 E27.27295
G1 X100.88 Y90.213 E27.28656
G1 X101.221 Y90.125 E27.29827
G1 X118.779 Y90.124 E27.88225
G1 X119.115 Y90.209 E27.89378
